symbols/web/calendar_month/materialsymbolsrounded/calendar_month_gradN25_40px.svg

<svg xmlns="http://www.w3.org/2000/svg" height="40" width="40"><path d="M20 23.292q-.708 0-1.167-.459-.458-.458-.458-1.166 0-.709.458-1.167.459-.458 1.167-.458t1.167.458q.458.458.458 1.167 0 .708-.458 1.166-.459.459-1.167.459Zm-6.667 0q-.708 0-1.166-.459-.459-.458-.459-1.166 0-.709.459-1.167.458-.458 1.166-.458.709 0 1.167.458.458.458.458 1.167 0 .708-.458 1.166-.458.459-1.167.459Zm13.334 0q-.709 0-1.167-.459-.458-.458-.458-1.166 0-.709.458-1.167.458-.458 1.167-.458.708 0 1.166.458.459.458.459 1.167 0 .708-.459 1.166-.458.459-1.166.459ZM20 29.958q-.708 0-1.167-.458-.458-.458-.458-1.167 0-.708.458-1.166.459-.459 1.167-.459t1.167.459q.458.458.458 1.166 0 .709-.458 1.167-.459.458-1.167.458Zm-6.667 0q-.708 0-1.166-.458-.459-.458-.459-1.167 0-.708.459-1.166.458-.459 1.166-.459.709 0 1.167.459.458.458.458 1.166 0 .709-.458 1.167-.458.458-1.167.458Zm13.334 0q-.709 0-1.167-.458-.458-.458-.458-1.167 0-.708.458-1.166.458-.459 1.167-.459.708 0 1.166.459.459.458.459 1.166 0 .709-.459 1.167-.458.458-1.166.458ZM7.875 36.375q-1.042 0-1.833-.771-.792-.771-.792-1.854V8.958q0-1.041.792-1.833.791-.792 1.833-.792h2.5V4.917q0-.542.417-.959.416-.416.958-.416.583 0 1 .416.417.417.417.959v1.416h13.666V4.917q0-.542.396-.959.396-.416.979-.416.584 0 1 .416.417.417.417.959v1.416h2.5q1.042 0 1.833.792.792.792.792 1.833V33.75q0 1.083-.792 1.854-.791.771-1.833.771Zm0-2.625h24.25V16.458H7.875V33.75Zm0-19.958h24.25V8.958H7.875Zm0 0V8.958v4.834Z"/></svg>

<svg xmlns="http://www.w3.org/2000/svg" height="40" width="40"><path d="M20 23.292Q19.292 23.292 18.833 22.833Q18.375 22.375 18.375 21.667Q18.375 20.958 18.833 20.5Q19.292 20.042 20 20.042Q20.708 20.042 21.167 20.5Q21.625 20.958 21.625 21.667Q21.625 22.375 21.167 22.833Q20.708 23.292 20 23.292ZM13.333 23.292Q12.625 23.292 12.167 22.833Q11.708 22.375 11.708 21.667Q11.708 20.958 12.167 20.5Q12.625 20.042 13.333 20.042Q14.042 20.042 14.5 20.5Q14.958 20.958 14.958 21.667Q14.958 22.375 14.5 22.833Q14.042 23.292 13.333 23.292ZM26.667 23.292Q25.958 23.292 25.5 22.833Q25.042 22.375 25.042 21.667Q25.042 20.958 25.5 20.5Q25.958 20.042 26.667 20.042Q27.375 20.042 27.833 20.5Q28.292 20.958 28.292 21.667Q28.292 22.375 27.833 22.833Q27.375 23.292 26.667 23.292ZM20 29.958Q19.292 29.958 18.833 29.5Q18.375 29.042 18.375 28.333Q18.375 27.625 18.833 27.167Q19.292 26.708 20 26.708Q20.708 26.708 21.167 27.167Q21.625 27.625 21.625 28.333Q21.625 29.042 21.167 29.5Q20.708 29.958 20 29.958ZM13.333 29.958Q12.625 29.958 12.167 29.5Q11.708 29.042 11.708 28.333Q11.708 27.625 12.167 27.167Q12.625 26.708 13.333 26.708Q14.042 26.708 14.5 27.167Q14.958 27.625 14.958 28.333Q14.958 29.042 14.5 29.5Q14.042 29.958 13.333 29.958ZM26.667 29.958Q25.958 29.958 25.5 29.5Q25.042 29.042 25.042 28.333Q25.042 27.625 25.5 27.167Q25.958 26.708 26.667 26.708Q27.375 26.708 27.833 27.167Q28.292 27.625 28.292 28.333Q28.292 29.042 27.833 29.5Q27.375 29.958 26.667 29.958ZM7.875 36.375Q6.833 36.375 6.042 35.604Q5.25 34.833 5.25 33.75V8.958Q5.25 7.917 6.042 7.125Q6.833 6.333 7.875 6.333H10.375V4.917Q10.375 4.375 10.792 3.958Q11.208 3.542 11.75 3.542Q12.333 3.542 12.75 3.958Q13.167 4.375 13.167 4.917V6.333H26.833V4.917Q26.833 4.375 27.229 3.958Q27.625 3.542 28.208 3.542Q28.792 3.542 29.208 3.958Q29.625 4.375 29.625 4.917V6.333H32.125Q33.167 6.333 33.958 7.125Q34.75 7.917 34.75 8.958V33.75Q34.75 34.833 33.958 35.604Q33.167 36.375 32.125 36.375ZM7.875 33.75H32.125Q32.125 33.75 32.125 33.75Q32.125 33.75 32.125 33.75V16.458H7.875V33.75Q7.875 33.75 7.875 33.75Q7.875 33.75 7.875 33.75ZM7.875 13.792H32.125V8.958Q32.125 8.958 32.125 8.958Q32.125 8.958 32.125 8.958H7.875Q7.875 8.958 7.875 8.958Q7.875 8.958 7.875 8.958ZM7.875 13.792V8.958Q7.875 8.958 7.875 8.958Q7.875 8.958 7.875 8.958Q7.875 8.958 7.875 8.958Q7.875 8.958 7.875 8.958V13.792Z"/></svg>
